X:1
T:Abendfriede
T:Josef Rheinberger
T:Text: Friedrich Rückert
T:Abendfriede
T:Nr. 5 aus Im neuen Frühling, Op. 52
T:CPDL - Creative Commons Attribution Non Commercial 3.0
T:CPDL - Creative Commons Attribution Non Commercial 3.0
T:CPDL - Creative Commons Attribution Non Commercial 3.0
C:Josef Rheinberger
Z:Friedrich Rückert
Z:CPDL - Creative Commons Attribution Non Commercial 3.0
%%score [ 1 2 3 4 ]
L:1/8
Q:1/4=58
M:4/4
K:F
V:1 treble nm="Sopran"
V:2 treble nm="Alt"
V:3 treble-8 nm="Tenor"
V:4 bass nm="Bass"
V:1
"^Langsam und innig" z2!p!"^dolce" F2 A2 c2 | c2"^zum  A - bend -"!<(! GA Bc de!<)! | %2
w: Die Schwal- be|schwingt~ * * * * * *|
!>(! f4 c2!>)! z A | A2!<(! A2 A2 A2 | A!<)!!>(!c BA!>)! G2 | z!p! G | G2 G2!<(! G3 c!<)! | %7
w: lie- de sich|auf das Stäng- lein|un- * term * Dach,|in|Feld und Stadt, in|
 !^!c!^!=B!^!A!^!G (!^!e2 f)e |!>(! d4 c2!>)! AG | (F3 G) E2 z2 |!p! c2 G>G E3 z | %11
w: Feld und in der Stadt _ ist|Frie- de, ist _|Frie- * de,|Fried' ist im Haus|
!pp! e2 (3ded G3 z | !>!A2 G>F E2!<(! E2!<)! | GF!>(! (3FED!>)! C3 z | z2!p! G2 G2 E2 | %15
w: und im * Ge- mach,|Fried' ist im Haus und|Fried' _ im * Ge- mach.|Ein Schim- mer|
 D2 G2 G2 F2 | F2 (E2 E3) z |!pp! G2 GG A2 F2 | E7/2 F/ E3 z | z2!f! E2 ^G2 =B2 | %20
w: fällt vom A- bend-|ro- te _|leis in die stil- le|Straß' her- ein|und vor'm Ent-|
 =B2!<(! ^F^G AB ^c^d!<)! | e4 =B3 z/!ff! e/ | e2 e2 e2 e2 | (e2 =g4) f2 | f4- f z!p! F2 | %25
w: schla- fen _ sagt _ der _|Bo- te, es|werd' ein schö- ner|Mor- * gen|sein, _ es|
 F2 F2 F2 F2 |!pp![Q:1/4=52]"^rit." (F2 G4) F2 | !fermata!F8 |] %28
w: werd' ein schö- ner|Mor- * gen|sein.|
V:2
 z2!p! C2 F2 A2 | G2!<(! G2 F2 B2!<)! |"^lie-de__"!>(! B2 (A2 A2)!>)! z F | F2!<(! F2 F2 F2 | %4
w: ||||
 F!<)!!>(!^F G=F!>)! E2 | z!p! E | F2 F2 E2 G2 | F4 (E2 A)G | F2 F2 E2 C2 | (CA, =B,2) C2 z2 | %10
w: |in|Feld und Stadt ist|Frie- de, _ in|Feld und Stadt ist|Frie- * * de,|
!p! E2 D>D C3 z |!pp! c2"^im  Ge -" GF E3 z | !>!E2 D>C =B,2!<(! ^C2!<)! | D2!>(! =B,>B,!>)! C3 z | %14
w: ||||
 z2!p! C2 E2 G2 | G2!<(! DE FG A=B!<)! |!>(! c4!>)! G3 z |!pp! E2 EE E2 D2 | =B,7/2 B,/ B,3 z | %19
w: ||ro- te|||
 z2!f! E2 E2 ^G2 | ^F2!<(! F2 E2 A2!<)! | A2 ^G2- G3 z/!ff! G/ | ^G2 G2 A2 A2 | B6 A2 | %24
w: ||Bo- te, _ _|_ _ _ _||
 A4- A z!p! F2 | E2 D2 A,2 B,2 |!pp! (A,2 B,4) A,2 | !fermata!A,8 |] %28
w: ||||
V:3
 z2!p! A2 c2 f2 | e2!<(! e2 d2 d2!<)! |!>(! c4 f2!>)! z c | c2!<(! c2 d2 d2!<)! | d3!>(! d!>)! G2 | %5
w: Die Schwal- be|schwingt zum A- bend-|lie- de sich|auf das Stäng- lein|un- term Dach,|
 z!mf! !^!c | !^!c!^!=B!^!A!^!G (!^!e2 f)e |!>(! d4!>)! c3 G | G4 G3 G | G4 G2!p! !>!G2- | %10
w: in|Feld und in der Stadt _ ist|Frie- de, ist|Frie- de, ist|Frie- de, Fried',|
 G6 !>!G2- | G6 !>!G2- | G2 G>A =B2!<(! A2!<)! | A2!>(! G>F!>)! E3 z | z2!p! E2 G2 c2 | %15
w: _ Fried',|_ Fried'|_ ist im Haus und|Fried' im Ge- mach.|Ein Schim- mer|
 =B2 B2 A2 G2 | G4 c3 z |!pp! c2 cc ^c2 A2 | ^G7/2 A/ G3 z | z2!f! ^G2 =B2 e2 | %20
w: fällt vom A- bend-|ro- te|leis in die stil- le|Straß' her- ein|und vor'm Ent-|
 ^d2!<(! d2 ^c2 c2!<)! | =B4 e3 z/!ff! B/ | =B2 B2 =c2 c2 | (=g2 e4) f2 | f4- f z!p! f2 | %25
w: schla- fen sagt der|Bo- te, es|werd' ein schö- ner|Mor- * gen|sein, _ es|
 e2 d2 A2 B2 |!pp! c6 c2 | !fermata!c8 |] %28
w: werd' ein schö- ner|Mor- gen|sein.|
V:4
 z2!p! F,2 F,2 F,2 | F,2!<(! F,2 F,2 F,2!<)! |!>(! F,4 F,2!>)! z F, | F,2!<(! E,2 D,2 A,,2!<)! | %4
w: ||||
 B,,3!>(! =B,,!>)! C,2 | z!p! C, | D,2 C,=B,, C,3 E, | (G,,2 A,,=B,,) C,3 !^!C, | %8
w: |in|Feld und _ Stadt ist|Frie- * * de, in|
 !^!C,!^!=B,,!^!A,,!^!G,, (!^!E,2 F,)E, |!>(! D,4!>)! C,2 z2 |!p! A,,2 =B,,>B,, C,3 z | %11
w: Feld und in der Stadt _ ist|Frie- de,|Fried' ist im Haus,|
!pp! A,,2 =B,,>B,, C,3 z | !>!C,2 =B,,>A,, ^G,,2!<(! A,,2!<)! | D,2!>(! G,,>G,,!>)! C,3 z | %14
w: Fried' ist im Haus,|Fried' ist im Haus und|Fried im Ge- mach.|
 z2!p! C,2 C,2 C,2 | C,2 C,2 C,2 C,2 | C,4 C,2!pp! !>!_B,,2- | B,,2 C,B,, A,,2 D,2 | %18
w: ||* * leis|_ _ _ _ _|
 E,7/2 D,/ E,3 z | z2!f! E,2 E,2 E,2 | E,2!<(! E,2 E,2 E,2!<)! | E,4 E,3 z/!ff! E,/ | %22
w: ||||
 E,2 E,2 A,2 A,2 | =C6 F,2 | F,2!>(! !^!F,2 !^!E,2 !^!D,2!>)! |!p! (A,,2 B,,2) (C,2 D,2) | %26
w: ||* es werd' ein|schö- * ner _|
!pp! C,6 F,,2 |"^2. 4. 1871\nPalmsonntag" !fermata!F,,8 |] %28
w: _ _||

